picto/chair-lift-left-framed.svg

<svg class="color-immutable" width="30" height="30" viewBox="0 0 30 30" fill="none" xmlns="http://www.w3.org/2000/svg"><path d="M30 0H0V30H30V0Z" fill="#2D327D"/><path d="M25.5 3C26.325 3 27 3.675 27 4.5V25.5C27 26.325 26.325 27 25.5 27H4.5C3.675 27 3 26.325 3 25.5V4.5C3 3.675 3.675 3 4.5 3H25.5ZM25.5 2.625H4.5C3.46613 2.625 2.625 3.46613 2.625 4.5V25.5C2.625 26.5339 3.46613 27.375 4.5 27.375H25.5C26.5339 27.375 27.375 26.5339 27.375 25.5V4.5C27.375 3.46613 26.5339 2.625 25.5 2.625Z" fill="white"/><path d="M18.7875 8.13157L5.99988 5.99992V6.68415L18.7875 8.81595V8.13157Z" fill="white"/><path d="M20.5885 8.43158V9.1158L24 9.68498V8.99978L20.5885 8.43158Z" fill="white"/><path d="M22.2755 20.0255V16.3162C22.2755 15.6961 21.7709 15.1918 21.1505 15.1918C20.7854 15.1918 20.4436 15.3683 20.2325 15.6664L18.3736 18.2884C18.3132 18.3748 18.2806 18.4768 18.2806 18.5817C18.2806 18.8614 18.5075 19.0887 18.786 19.0887C18.9507 19.0887 19.1049 19.0079 19.1994 18.8743L19.9511 17.8148V19.3876H17.8887C17.4735 19.3876 17.1381 19.7237 17.1381 20.1379V23.3068C17.1381 23.6902 17.4484 24.0004 17.832 24.0004C18.2139 24.0004 18.5251 23.6902 18.5251 23.3068V20.7757H21.5249C21.9391 20.7757 22.2755 20.4387 22.2755 20.0255Z" fill="white"/><path d="M20.1763 7.5H19.2008V11.431L23.0254 12.069V21.5246H19.2008V22.4995H24.0001V11.2426L20.1763 10.6058V7.5Z" fill="white"/><path d="M21.0138 14.7777C21.5935 14.7777 22.0636 14.3069 22.0636 13.7276C22.0636 13.1473 21.5935 12.6774 21.0138 12.6774C20.4342 12.6774 19.964 13.1473 19.964 13.7276C19.964 14.3069 20.4342 14.7777 21.0138 14.7777Z" fill="white"/></svg>

<svg class="color-immutable" width="30" height="30" viewBox="0 0 30 30" fill="none" xmlns="http://www.w3.org/2000/svg"><g clip-path="url(#a)"><path d="M30 0H0v30h30V0Z" fill="#2D327D"/><path d="M25.5 3c.825 0 1.5.675 1.5 1.5v21c0 .825-.675 1.5-1.5 1.5h-21c-.825 0-1.5-.675-1.5-1.5v-21C3 3.675 3.675 3 4.5 3h21Zm0-.375h-21A1.877 1.877 0 0 0 2.625 4.5v21c0 1.034.841 1.875 1.875 1.875h21a1.877 1.877 0 0 0 1.875-1.875v-21A1.877 1.877 0 0 0 25.5 2.625Z" fill="#fff"/><path d="M18.788 8.132 6 6v.684l12.788 2.132v-.684ZM20.588 8.432v.684L24 9.685V9l-3.412-.568ZM22.276 20.026v-3.71a1.126 1.126 0 0 0-2.043-.65l-1.86 2.622a.507.507 0 0 0 .826.586l.752-1.06v1.574H17.89a.75.75 0 0 0-.75.75v3.169a.693.693 0 1 0 1.386 0v-2.531h3c.414 0 .75-.337.75-.75Z" fill="#fff"/><path d="M20.176 7.5h-.975v3.931l3.824.638v9.456h-3.824v.975H24V11.243l-3.825-.637V7.5Z" fill="#fff"/><path d="M21.014 14.778a1.05 1.05 0 1 0-.001-2.101 1.05 1.05 0 0 0 0 2.1Z" fill="#fff"/></g><defs><clipPath id="a"><path fill="#fff" d="M0 0h30v30H0z"/></clipPath></defs></svg>
